src/assets/svg/language-icon.svg

<svg
  width="22"
  height="22"
  viewBox="0 0 22 22"
  fill="none"
  xmlns="http://www.w3.org/2000/svg"
>
  <path
    d="M18.0679 4.28529C19.9211 6.03733 21.0719 8.42546 21.0719 10.9996C21.0719 13.6009 19.9211 15.9364 18.0679 17.6875C16.2147 19.4387 13.7165 20.5012 10.9937 20.5012C8.24215 20.5012 5.77179 19.4396 3.91947 17.6875C2.06715 15.9355 0.943359 13.6 0.943359 10.9996C0.943359 8.42546 2.06625 6.03648 3.91947 4.28529C5.77269 2.53411 8.24305 1.47168 10.9937 1.47168C13.7165 1.47168 16.2156 2.53326 18.0679 4.28529ZM12.1444 16.361H12.201C12.2855 16.361 12.3699 16.3873 12.4256 16.4671C12.4822 16.5207 12.5379 16.5733 12.6502 16.5733C12.678 16.5733 12.7068 16.547 12.7068 16.4935C12.7068 16.3873 12.7346 16.2812 12.7346 16.2548C12.7625 16.175 12.8191 16.175 12.8747 16.175C12.9026 16.175 12.9026 16.175 12.9026 16.1215L12.846 16.068C12.8182 16.068 12.7894 16.0943 12.7894 16.1215C12.7616 16.1478 12.7328 16.175 12.705 16.1215L12.5361 16.2277L12.3394 16.1742L12.0025 15.696L12.1148 15.0056C12.1148 14.9792 12.0869 14.9257 12.0025 14.8994C11.918 14.8731 11.918 14.8196 11.9459 14.7932C11.8336 14.7397 11.6935 14.6871 11.5246 14.6871C11.4967 14.6871 11.4123 14.7134 11.2722 14.7406C11.132 14.7406 11.0476 14.7406 11.0476 14.6871C11.0476 14.6073 11.132 14.4484 11.1877 14.2625C11.2156 14.1826 11.2443 14.0501 11.2722 13.9966C11.2722 13.9431 11.3 13.8905 11.3 13.8905L11.4401 13.572L11.4123 13.5185L11.2156 13.4922C11.159 13.4922 10.9631 13.5983 10.8221 13.7045C10.682 13.8642 10.5697 13.9966 10.5697 14.1028L10.0082 14.209C9.89594 14.209 9.78365 14.1826 9.69921 14.0765C9.67137 13.944 9.58692 13.7843 9.47463 13.6255C9.36235 13.493 9.3345 13.3597 9.3345 13.2272C9.3345 13.0675 9.36235 12.8552 9.41894 12.7227C9.47553 12.5631 9.47553 12.3779 9.36235 12.2183C9.39019 12.2183 9.47464 12.1648 9.41894 12.1121L9.55908 11.9525L9.58692 11.9261L9.61477 11.9525C9.72706 11.8726 9.92379 11.8463 10.0918 11.8726C10.2885 11.899 10.4008 11.8191 10.4565 11.6866L10.6532 11.8726C10.7098 11.899 10.8221 11.713 10.8221 11.6603L10.7377 11.6068L11.2434 11.5006L11.2713 11.5542H11.4958L11.777 11.7138C11.8049 11.7138 11.8336 11.6875 11.8615 11.6603C11.918 11.6068 11.9459 11.6068 11.9737 11.634L12.2262 11.8998C12.1983 11.9533 12.1983 12.006 12.1983 12.0595C12.2262 12.0858 12.2549 12.113 12.2549 12.1393C12.2549 12.2455 12.5073 12.7236 12.6484 12.7236C12.7328 12.7236 12.7607 12.6701 12.7328 12.5639V12.3516C12.7328 12.2191 12.705 12.0595 12.6484 11.9007C12.5639 11.7682 12.5082 11.5822 12.4516 11.4225V11.369C12.4516 11.2892 12.5082 11.2093 12.6205 11.1567C12.705 11.1032 12.7607 11.0505 12.7607 11.0505C12.8451 10.997 12.9295 10.9181 13.0418 10.8645C13.1263 10.811 13.2107 10.6786 13.2664 10.5987L13.3509 10.4127V10.3066H13.4353C13.4353 10.3066 13.4919 10.2803 13.4919 10.2268C13.4919 10.2268 13.464 10.2004 13.4353 10.2004C13.4074 10.1741 13.323 10.1206 13.2664 10.0679L13.323 10.0144C13.4074 9.9346 13.4353 9.74861 13.3796 9.66963L13.6042 9.56347C13.5476 9.66963 13.7165 9.69596 13.7731 9.66963L13.8853 9.43099C13.8288 9.2985 13.8009 9.43099 13.8853 9.27133C13.9698 9.245 14.0542 9.21782 14.1378 9.16517C14.2222 9.13884 14.2779 9.11167 14.3624 9.11167C14.3902 9.11167 14.4189 9.13799 14.4189 9.13799C14.4755 9.13799 14.5034 9.11167 14.5034 9.11167C14.5034 9.03183 14.4755 8.97918 14.4468 8.97918L14.5869 8.68703C14.6992 8.68703 14.8115 8.63353 14.8681 8.52737L15.0927 8.50104C15.1493 8.50104 15.1771 8.47472 15.1771 8.42121V8.36771L15.5984 8.26155L15.655 8.12907L15.5427 7.9694C15.5427 7.9694 15.5706 7.94308 15.5706 7.9159C15.5706 7.88872 15.5427 7.8624 15.514 7.83607C15.4861 7.83607 15.4574 7.80974 15.4295 7.80974C15.4017 7.78342 15.373 7.75624 15.3451 7.75624H15.5697C15.5697 7.75624 15.682 7.72991 15.682 7.65008C15.682 7.54392 15.6254 7.51759 15.5131 7.51759C15.2041 7.51759 14.7271 7.62375 14.5582 7.94223L14.3893 8.02206L14.6139 7.80974L14.6417 7.75624C14.6417 7.72991 14.6139 7.70274 14.5573 7.67641H14.4728C14.754 7.67641 14.922 7.59658 15.0343 7.51675C15.1187 7.43692 15.2032 7.35708 15.399 7.30443C15.5957 7.33076 15.7925 7.33076 15.9883 7.33076C16.1572 7.30443 16.3252 7.30443 16.5219 7.30443C16.6063 7.25093 16.7186 7.14477 16.7743 7.03861L17.0555 7.01228C17.1121 7.06579 17.3079 6.93245 17.3079 6.85262C17.3079 6.77279 17.2801 6.74646 17.1956 6.72014C17.1112 6.69381 17.0268 6.6403 17.0268 6.56047V6.48064C17.0546 6.45432 17.0268 6.42714 16.9989 6.42714C16.8866 6.42714 16.6054 6.55963 16.5219 6.61313C16.4653 6.66663 16.4375 6.5868 16.4375 6.5333L16.4653 6.55963L16.5776 6.50612L16.8588 6.39996L16.8866 6.37364C16.8866 6.26748 16.7177 6.24115 16.662 6.24115C16.6342 6.24115 16.5776 6.26748 16.5219 6.29465C16.4653 6.29465 16.4096 6.29465 16.4096 6.24115L16.4375 6.18765C16.2407 6.05516 16.0727 5.78934 16.0727 5.70951V5.60335C16.1006 5.57703 16.0727 5.57703 16.0161 5.57703H15.9317C15.9039 5.60335 15.8751 5.57703 15.8751 5.52352C15.8751 5.47002 15.7628 5.17872 15.6227 5.17872L15.5382 5.25855C15.5382 5.31205 15.5104 5.33838 15.4538 5.36471C15.3972 5.39104 15.3694 5.41821 15.3694 5.44454H15.3415L15.0603 5.6042C15.0603 5.5507 15.0325 5.5507 15.0037 5.57787C14.9759 5.57787 14.9759 5.6042 14.9193 5.6042H14.8627C15.0029 5.6042 14.975 5.41821 14.8627 5.41821L14.6381 5.44454C14.5815 5.44454 14.5815 5.44454 14.6381 5.39104C14.666 5.33753 14.7226 5.28488 14.666 5.23137C14.666 5.17787 14.6381 5.17787 14.6094 5.20505L14.666 5.12522C14.7226 5.09889 14.6381 4.99273 14.5815 4.93923L14.3291 4.9129L14.1602 4.75324C14.1324 4.77957 14.1036 4.75324 14.0479 4.72691C14.0201 4.70058 13.9635 4.64708 13.9357 4.64708L13.7389 4.72691L13.2332 4.62075C13.1766 4.62075 13.093 4.64708 13.093 4.72691C13.093 4.75324 13.093 4.78042 13.1209 4.78042C13.1775 4.80674 13.1775 4.83392 13.1775 4.86025C13.1775 4.88657 13.2053 4.99273 13.2341 5.12607C13.2341 5.25855 13.2341 5.31206 13.1496 5.28573L13.0373 5.44539C13.0373 5.49889 13.0939 5.52522 13.1218 5.52522C13.2062 5.57872 13.2907 5.65771 13.3464 5.73754C13.403 5.79104 13.403 5.87002 13.3742 5.94985L12.8406 6.34816V6.37449C12.8406 6.45432 12.8406 6.50697 12.8685 6.56047C12.9251 6.61398 12.9251 6.69296 12.9807 6.77279C13.1209 6.82629 13.1209 6.87895 13.0086 6.93245C12.952 6.93245 12.8963 6.95878 12.8397 6.98596L12.7831 7.03946C12.7831 7.06579 12.7553 7.06579 12.7265 7.06579H12.5864C12.5864 7.06579 12.5864 7.03946 12.6142 7.03946C12.6142 7.03946 12.6421 7.01313 12.6421 6.98596L12.3897 6.85347L12.2774 6.66748C12.3052 6.58765 12.3052 6.535 12.2774 6.50782C12.2495 6.48064 12.2495 6.42799 12.2495 6.37533C12.2495 6.32268 12.1929 6.18935 12.0806 6.18935C11.9405 6.18935 11.8282 6.21567 11.6872 6.24285C11.7438 6.21652 11.6306 6.08319 11.6027 6.08319C11.4626 6.08319 11.2937 6.02968 11.097 5.92353C10.9003 5.81737 10.7601 5.76386 10.6478 5.76386C10.5634 5.76386 10.3954 5.79019 10.2831 5.84369C10.3397 5.81737 10.3397 5.79019 10.3676 5.71121L10.1987 5.44539L10.1708 5.41906C10.1142 5.41906 10.0585 5.44539 10.0019 5.49889C9.94535 5.52522 9.86181 5.49889 9.86181 5.39273C9.86181 5.36641 9.88966 5.33923 9.88966 5.33923C9.9175 5.3129 9.9175 5.3129 9.88966 5.28573C9.88966 5.2059 9.9175 5.12607 10.0019 5.04708C10.0585 4.99358 10.0864 4.88742 10.1142 4.80844C10.1708 4.78211 10.1708 4.75494 10.1708 4.72861C10.1708 4.67511 10.1987 4.67511 10.2274 4.67511C10.284 4.67511 10.3676 4.64878 10.4242 4.6216C10.4807 4.5681 10.5364 4.54177 10.6209 4.54177L10.6487 4.46194C10.6487 4.43561 10.5643 4.40844 10.3963 4.38211C10.1996 4.35578 10.1151 4.35578 10.1151 4.30228L10.143 4.27595C10.3119 4.32946 10.452 4.35578 10.5364 4.35578C10.7053 4.38211 10.7889 4.32946 10.9577 4.24962C11.0143 4.2233 11.1823 4.16979 11.3225 4.08996C11.3225 4.06364 11.2946 4.06364 11.2102 4.03646H11.3225L11.5192 3.9303V3.82414L11.4626 3.77064L11.7438 3.71714C11.7159 3.66363 11.7716 3.6373 11.8004 3.6373C11.857 3.6373 11.9127 3.66363 11.9693 3.71714C12.0258 3.77064 12.0537 3.77064 12.0815 3.77064L12.334 3.69081C12.334 3.66448 12.3618 3.66448 12.4184 3.66448C12.475 3.63815 12.5028 3.61098 12.475 3.58465L12.2783 3.39866C12.2217 3.39866 12.1938 3.31883 12.2504 3.31883C12.3349 3.31883 12.3906 3.2925 12.3349 3.21267C12.2783 3.18635 12.1947 3.13284 12.1103 3.10651C12.0258 3.05301 11.9414 3.02668 11.8579 3.02668C11.8013 3.02668 11.689 3.05301 11.689 3.13284C11.689 3.18635 11.7168 3.18635 11.7456 3.18635C11.8022 3.18635 11.83 3.21267 11.83 3.23985C11.8866 3.26618 11.8579 3.29335 11.8022 3.29335H11.7456C11.689 3.29335 11.6054 3.34686 11.5488 3.45301C11.4922 3.53285 11.4087 3.61268 11.3243 3.639C11.2964 3.639 11.2964 3.639 11.2964 3.61268C11.3243 3.58635 11.2964 3.58635 11.2964 3.55917C11.2686 3.53285 11.2398 3.50567 11.212 3.50567C11.1554 3.47934 11.0997 3.47934 11.0997 3.45216C11.0997 3.39866 11.1563 3.37233 11.212 3.2925C11.2398 3.21267 11.1554 3.18635 11.0152 3.18635C10.9586 3.18635 10.903 3.21267 10.8751 3.26618C10.8473 3.2925 10.8185 3.34601 10.7907 3.39866L10.5095 3.10651L10.2849 3.08019C10.2849 3.02668 10.3128 2.97403 10.3415 2.92053C10.3981 2.81437 10.1726 2.68188 10.0891 2.60205C10.0612 2.60205 10.0046 2.57572 9.94894 2.57572C9.9211 2.57572 9.75221 2.70821 9.63992 2.76171C9.58333 2.78804 9.55548 2.81522 9.55548 2.84154C9.55548 2.89505 9.61208 2.89505 9.69562 2.89505H9.66777C9.61118 2.89505 9.58333 2.92137 9.58333 3.00121C9.58333 3.02753 9.80791 3.08104 9.8645 3.08104C9.9211 3.08104 9.97679 3.08104 9.97679 3.10736C10.0046 3.13369 10.0046 3.13369 10.0612 3.13369L10.1457 3.10736V3.16087L10.1178 3.21437L10.1457 3.2942L9.8645 3.42669L9.83665 3.45301C9.80881 3.45301 9.78006 3.45301 9.78006 3.47934C9.78006 3.50567 9.78006 3.55917 9.83665 3.61183C9.8645 3.66533 9.83666 3.69166 9.69652 3.69166L9.61208 3.63815C9.61208 3.58465 9.55548 3.532 9.41535 3.47849C9.16292 3.39866 8.71376 3.37233 8.3203 3.37233C8.12357 3.34601 7.98344 3.34601 7.87115 3.34601L7.44984 3.47849L7.56213 3.69081C7.53428 3.69081 7.47769 3.71714 7.47769 3.71714C7.3654 3.6373 7.19651 3.47849 7.14082 3.47849L6.94409 3.45216C6.32605 3.47849 5.59662 4.03646 4.89504 4.69973C4.19345 5.36301 3.57542 6.10612 3.2664 6.55793H3.32299C3.37958 6.55793 3.40743 6.5316 3.49187 6.50442C3.54847 6.4781 3.57631 6.53075 3.57631 6.61058C3.57631 6.66408 3.57631 6.69041 3.54847 6.74307C3.52062 6.79572 3.57631 6.8229 3.6886 6.8229C3.71645 6.8229 3.7452 6.79657 3.7452 6.74307C3.77304 6.68956 3.77304 6.68956 3.77304 6.74307L3.82964 6.92905V6.95538C3.82964 6.98171 3.80179 7.00889 3.77304 7.03521C3.6886 7.06154 3.77304 7.14137 3.85749 7.14137H3.99762L4.05422 7.11504L4.08206 7.08872C4.08206 7.19488 4.19435 7.2212 4.27879 7.2212H4.30664C4.30664 7.2212 4.27879 7.27471 4.25005 7.30103C4.19345 7.30103 4.19345 7.32736 4.25005 7.35454L4.53122 7.40804V7.43437L4.7001 7.77917C4.7001 7.83267 4.64351 7.96516 4.58781 7.96516C4.53212 7.96516 4.53122 7.93883 4.53122 7.91165C4.55907 7.91165 4.55907 7.88533 4.55907 7.83182C4.55907 7.8055 4.53122 7.77832 4.53122 7.75199C4.50337 7.72567 4.44678 7.72567 4.33449 7.72567C4.30664 7.72567 4.2222 7.72567 4.2779 7.8055L4.41803 8.09764L4.47463 8.15115C4.30574 8.15115 4.2779 8.68194 4.2779 8.8416L4.30574 9.05392L4.33359 9.13375V9.16007L4.30574 9.39872L4.64261 9.92951H4.72705C4.72705 9.95583 4.72705 9.98301 4.6992 10.0093C4.67136 10.0357 4.67136 10.0628 4.67136 10.1155L4.78365 10.1953C4.78365 10.355 4.84024 10.3813 4.98038 10.5138C4.98038 10.5936 5.09267 10.6998 5.26155 10.8059C5.45828 10.8858 5.57057 10.9384 5.62626 10.9656C5.73855 11.3376 5.93528 11.735 6.21556 11.9745L6.2434 12.1342L6.18681 12.1877C6.13022 12.1877 6.13022 12.214 6.15896 12.2412L6.38354 12.3474C6.44014 12.2939 6.46798 12.3474 6.52368 12.4272C6.58027 12.5334 6.60812 12.5869 6.63597 12.6132V12.693L6.7761 12.879L6.8327 12.9325L6.88929 12.8C6.8327 12.6675 6.63687 12.3754 6.46798 12.1367C6.38354 12.0043 6.2991 11.8709 6.21556 11.7648C6.15896 11.6849 6.13112 11.6323 6.13112 11.6051C6.13112 11.5779 6.10327 11.2866 6.07452 11.2331C6.10237 11.2595 6.18681 11.2866 6.2434 11.313C6.32785 11.3393 6.41229 11.3665 6.46798 11.3928C6.49583 11.6051 6.58027 11.7648 6.72041 11.8973C6.8327 12.0034 6.94499 12.1359 7.02943 12.2956C6.97283 12.3491 7.08602 12.3491 7.14172 12.3491C7.16956 12.4026 7.16957 12.4289 7.16957 12.5351C7.42199 12.7737 7.92774 13.3317 7.92774 13.5703V13.5966L7.87115 13.7563C7.98344 13.9949 8.23586 14.1809 8.48919 14.2608H8.54578C8.68592 14.3406 8.88265 14.4204 9.07938 14.4994C9.24826 14.6056 9.41624 14.6854 9.58513 14.738L9.8663 14.5784C10.0064 14.6047 10.1753 14.738 10.372 14.8969C10.5688 15.0557 10.8212 15.2417 11.1581 15.2952C11.2704 15.2153 11.327 15.2417 11.327 15.3487V15.4022L11.636 15.747L11.6926 15.9066C11.8615 16.0128 12.0573 16.1725 12.1417 16.3576L12.1444 16.361ZM8.52332 3.0114L8.49547 2.95789C8.43888 2.93157 8.29874 2.87806 8.24305 2.87806C8.2152 2.87806 8.15861 2.90439 8.04632 2.93157C7.84959 3.03772 7.54057 3.11755 7.31599 3.22371C7.2037 3.27722 7.11926 3.30354 7.06356 3.30354C7.17585 3.30354 7.28814 3.27722 7.40043 3.22371C7.48487 3.17021 7.59716 3.14388 7.70945 3.14388L7.79389 3.19739C7.85049 3.22371 7.87833 3.22371 7.93403 3.22371C7.96188 3.22371 7.99062 3.22371 8.04632 3.27722C8.10291 3.25089 8.15861 3.25089 8.24305 3.30354L8.32749 3.25004V3.14388L8.29964 3.09038L8.35624 3.11671C8.41283 3.11671 8.46852 3.09038 8.52512 3.01055L8.52332 3.0114ZM12.7616 18.5631L12.7894 18.7228C12.7894 18.7763 12.7616 18.7763 12.7328 18.829C12.6484 18.8825 12.5082 18.9614 12.5082 19.1211C12.5082 19.1474 12.5361 19.1746 12.5361 19.2273C12.5639 19.2536 12.5927 19.2808 12.5927 19.3334C12.5927 19.3597 12.5648 19.3869 12.5648 19.4132C14.5016 19.0948 16.2425 18.2192 17.59 16.8655H17.5621C17.5056 16.8918 17.422 16.8918 17.3933 16.8655L17.3088 16.8918L17.1687 16.8655H17.0842C17.0276 16.7856 16.972 16.733 16.8875 16.6795L16.8597 16.6531C16.8318 16.6531 16.8031 16.6531 16.8031 16.7066C16.8031 16.468 16.6063 16.2557 16.3818 16.2557C16.3818 16.282 16.3539 16.282 16.3539 16.282H16.2973L16.2407 16.2557H16.3252L16.3818 16.096L16.2416 16.0162L16.2138 16.0425C16.1015 16.0162 16.017 15.9627 15.9614 15.8565L15.8769 15.8302V15.8565L15.8203 15.8829C15.708 15.9092 15.6236 15.9364 15.5679 15.9627C15.4556 15.9364 15.3712 15.8829 15.3433 15.8565L15.0064 15.8829C15.0064 15.7767 14.9499 15.6442 14.8097 15.6442C14.6408 15.6442 14.4163 15.6442 14.3606 15.8302C14.3606 15.8837 14.3884 15.9627 14.4172 15.9899V16.096L14.3893 16.1495L14.3615 16.1758H14.3336L14.2492 15.9899L14.3336 15.8837C14.3058 15.8302 14.3058 15.8039 14.3058 15.7512C14.3058 15.6986 14.2779 15.6714 14.2779 15.6187L14.2501 15.5924H14.1656L13.9967 15.6986H13.8845L13.8566 15.7521C13.8288 15.7521 13.8288 15.7784 13.8288 15.8056C13.8288 15.8056 13.8009 15.8056 13.8009 15.8319L13.7731 15.8056H13.6608C13.6042 15.8591 13.5763 15.9381 13.5485 16.0179L13.6051 16.0714L13.4649 16.1249L13.4371 16.1784L13.3527 16.2319V16.2582H13.3248V16.3907H13.297C13.2691 16.2846 13.1847 16.1784 13.0158 16.0986H12.9313V16.1521C12.9313 16.2056 12.9879 16.2319 13.0436 16.2582C13.1002 16.3117 13.1281 16.3644 13.1559 16.3907C13.1281 16.3644 13.0715 16.3907 13.0715 16.417V16.4705L13.2404 16.7092V17.1601L13.297 17.2663C13.2404 17.3988 13.1847 17.5321 13.1002 17.6111V17.5848L13.0436 17.6111L13.0158 17.6374L12.9879 17.7436L13.0158 17.7699V17.7962L12.9592 17.7427L12.9313 17.9024L12.7912 17.9559C12.7346 17.9822 12.7068 18.0094 12.7346 18.0884C12.7346 18.1419 12.7068 18.1682 12.6502 18.1946L12.678 18.2481L12.6214 18.3279C12.6214 18.3542 12.6214 18.3814 12.5936 18.3814V18.4875L12.6214 18.6735L12.678 18.6999L12.7346 18.6735L12.7616 18.5631Z"
    fill="currentColor"
  />
</svg>;

<svg width="22" height="22" viewBox="0 0 22 22" fill="none" xmlns="http://www.w3.org/2000/svg"><path d="M18.068 4.285c1.853 1.752 3.004 4.14 3.004 6.715 0 2.6-1.15 4.936-3.004 6.688a10.28 10.28 0 0 1-7.074 2.813 10.22 10.22 0 0 1-7.075-2.814C2.067 15.936.943 13.6.943 11c0-2.575 1.123-4.964 2.976-6.715a10.23 10.23 0 0 1 7.075-2.813 10.27 10.27 0 0 1 7.074 2.813m-5.924 12.076h.057c.085 0 .169.026.225.106.056.054.112.106.224.106.028 0 .057-.026.057-.08 0-.106.028-.212.028-.238.027-.08.084-.08.14-.08.028 0 .028 0 .028-.053l-.057-.054c-.028 0-.057.026-.057.053-.027.027-.056.054-.084 0l-.169.107-.197-.054-.337-.478.113-.69c0-.027-.028-.08-.113-.107-.084-.026-.084-.08-.056-.106a1 1 0 0 0-.421-.106c-.028 0-.113.026-.253.054-.14 0-.224 0-.224-.054 0-.08.084-.239.14-.425.028-.08.056-.212.084-.265 0-.054.028-.107.028-.107l.14-.318-.028-.053-.196-.027c-.057 0-.253.106-.394.212-.14.16-.252.293-.252.399l-.562.106c-.112 0-.224-.026-.309-.133a1.3 1.3 0 0 0-.224-.45.58.58 0 0 1-.14-.399c0-.16.027-.372.084-.504a.54.54 0 0 0-.057-.505c.028 0 .113-.053.057-.106l.14-.16.028-.026.028.027c.112-.08.309-.107.477-.08.197.026.309-.054.364-.186l.197.186c.057.026.17-.16.17-.213l-.085-.053.505-.106.028.053h.225l.281.16c.028 0 .057-.027.085-.054.056-.053.084-.053.112-.026l.252.266c-.028.053-.028.106-.028.16.028.026.057.053.057.08 0 .105.252.584.393.584q.127 0 .085-.16v-.212c0-.133-.028-.293-.085-.451-.084-.133-.14-.319-.196-.479v-.053c0-.08.056-.16.168-.212.085-.054.14-.107.14-.107.085-.053.17-.132.282-.186.084-.053.169-.185.224-.265l.085-.186v-.106h.084s.057-.027.057-.08c0 0-.028-.027-.057-.027-.028-.026-.112-.08-.169-.132l.057-.054c.084-.08.112-.265.057-.344l.224-.107c-.056.107.113.133.17.107l.111-.239c-.056-.132-.084 0 0-.16a1 1 0 0 0 .253-.106c.084-.026.14-.053.224-.053.028 0 .057.026.057.026a.13.13 0 0 0 .084-.026c0-.08-.027-.133-.056-.133l.14-.292a.31.31 0 0 0 .281-.16l.225-.026q.084 0 .084-.08v-.053l.421-.106.057-.133-.112-.16s.028-.026.028-.053-.028-.054-.057-.08c-.028 0-.057-.026-.084-.026-.028-.027-.057-.054-.085-.054h.225s.112-.026.112-.106c0-.106-.057-.132-.169-.132-.309 0-.786.106-.955.424l-.169.08.225-.212.028-.054q0-.04-.085-.08h-.084c.281 0 .449-.08.561-.16a.75.75 0 0 1 .365-.212c.197.027.394.027.59.027.168-.027.336-.027.533-.027a.8.8 0 0 0 .252-.265l.281-.027c.057.054.253-.08.253-.16s-.028-.106-.112-.132c-.085-.026-.17-.08-.17-.16v-.08c.029-.026 0-.053-.027-.053-.112 0-.394.133-.477.186-.057.054-.084-.026-.084-.08l.027.027.113-.054.28-.106.029-.026c0-.107-.17-.133-.225-.133a.5.5 0 0 0-.14.054c-.057 0-.112 0-.112-.054l.027-.053c-.196-.133-.364-.399-.364-.478v-.107c.028-.026 0-.026-.057-.026h-.084c-.028.026-.057 0-.057-.053 0-.054-.112-.345-.252-.345l-.085.08c0 .053-.028.08-.084.106q-.085.04-.085.08h-.027l-.282.16c0-.054-.027-.054-.056-.027-.028 0-.028.026-.085.026h-.056c.14 0 .112-.186 0-.186l-.225.027c-.056 0-.056 0 0-.054.028-.053.085-.106.028-.16 0-.053-.028-.053-.057-.026l.057-.08c.057-.026-.028-.132-.085-.186l-.252-.026-.169-.16c-.028.027-.056 0-.112-.026-.028-.026-.085-.08-.112-.08l-.197.08-.506-.106c-.056 0-.14.026-.14.106 0 .026 0 .053.028.053.056.027.056.054.056.08s.028.133.057.266c0 .133 0 .186-.084.16l-.113.16c0 .053.057.08.085.08a.8.8 0 0 1 .224.212c.057.053.057.132.028.212l-.533.398v.026c0 .08 0 .133.027.186.057.054.057.133.113.213.14.053.14.106.028.16a.4.4 0 0 0-.17.053l-.056.053c0 .027-.028.027-.056.027h-.14s0-.027.027-.027c0 0 .028-.026.028-.053l-.252-.133-.113-.186q.042-.119 0-.16c-.027-.026-.027-.079-.027-.132 0-.052-.057-.186-.17-.186-.14 0-.252.027-.393.054.057-.026-.056-.16-.084-.16q-.211 0-.506-.16c-.197-.106-.337-.16-.45-.16-.084 0-.252.027-.364.08.057-.026.057-.053.085-.132l-.17-.266-.027-.026q-.084 0-.17.08c-.056.026-.14 0-.14-.106 0-.027.029-.054.029-.054.027-.026.027-.026 0-.053 0-.08.027-.16.112-.239.056-.053.084-.16.112-.239.057-.026.057-.053.057-.08 0-.053.028-.053.056-.053.057 0 .14-.026.197-.053a.26.26 0 0 1 .197-.08l.028-.08q0-.04-.253-.08c-.196-.026-.28-.026-.28-.08l.027-.026c.169.053.309.08.393.08.17.026.253-.027.422-.106.056-.027.224-.08.364-.16 0-.026-.027-.026-.112-.054h.112l.197-.106v-.106l-.056-.053.28-.054c-.027-.053.029-.08.057-.08q.085 0 .17.08c.056.054.084.054.111.054l.253-.08c0-.027.028-.027.084-.027.057-.026.085-.053.057-.08l-.197-.185c-.056 0-.084-.08-.028-.08.085 0 .14-.026.085-.106-.057-.027-.14-.08-.225-.106a.47.47 0 0 0-.252-.08c-.057 0-.169.026-.169.106 0 .053.028.053.057.053.056 0 .084.027.084.054.057.026.028.053-.028.053h-.056c-.057 0-.14.054-.197.16a.5.5 0 0 1-.225.186c-.028 0-.028 0-.028-.026.028-.027 0-.027 0-.054-.027-.026-.056-.053-.084-.053-.057-.027-.112-.027-.112-.054 0-.053.056-.08.112-.16.028-.08-.057-.106-.197-.106a.15.15 0 0 0-.14.08.6.6 0 0 0-.084.133l-.282-.292-.224-.027c0-.053.028-.106.056-.16.057-.106-.168-.238-.252-.318-.028 0-.084-.026-.14-.026-.028 0-.197.132-.31.186q-.084.04-.084.08c0 .053.057.053.14.053h-.027c-.057 0-.085.026-.085.106 0 .027.225.08.281.08s.113 0 .113.026c.028.027.028.027.084.027l.085-.027v.054l-.028.053.028.08-.282.133-.027.026c-.028 0-.057 0-.057.026 0 .027 0 .08.057.133.027.053 0 .08-.14.08l-.085-.054c0-.053-.057-.106-.197-.16-.252-.08-.701-.106-1.095-.106-.196-.026-.337-.026-.449-.026l-.421.132.112.213a.3.3 0 0 0-.084.026c-.113-.08-.281-.239-.337-.239l-.197-.026c-.618.026-1.347.584-2.049 1.248-.702.663-1.32 1.406-1.629 1.858h.057c.057 0 .084-.026.169-.054.056-.026.084.027.084.107 0 .053 0 .08-.028.132-.027.053.028.08.14.08.028 0 .057-.026.057-.08.028-.053.028-.053.028 0l.057.186v.026c0 .027-.028.054-.057.08-.084.027 0 .106.084.106h.14l.057-.026.028-.026c0 .106.112.132.197.132h.028s-.028.054-.057.08c-.057 0-.057.026 0 .054l.281.053v.026l.17.345c0 .054-.057.186-.113.186s-.057-.026-.057-.053c.028 0 .028-.027.028-.08 0-.026-.028-.054-.028-.08-.028-.026-.084-.026-.197-.026-.027 0-.112 0-.056.08l.14.292.057.053c-.17 0-.197.53-.197.69l.028.213.028.08v.026l-.028.239.337.53h.084c0 .027 0 .054-.028.08s-.028.054-.028.107l.113.08c0 .159.056.185.196.318 0 .08.113.186.282.292.196.08.309.132.364.16.113.372.31.769.59 1.009l.027.16-.056.053c-.057 0-.057.026-.028.053l.225.106c.056-.053.084 0 .14.08.056.106.084.16.112.186v.08l.14.186.057.053.056-.132c-.056-.133-.252-.425-.421-.663a5 5 0 0 0-.252-.372q-.085-.12-.085-.16c0-.027-.028-.318-.056-.372.027.026.112.054.168.08.085.026.17.053.225.08a.8.8 0 0 0 .252.504c.113.106.225.239.31.399-.057.053.056.053.112.053.028.054.028.08.028.186.252.239.758.797.758 1.035v.027l-.057.16c.112.238.365.424.618.504h.057c.14.08.337.16.533.238q.254.16.506.239l.281-.16c.14.027.31.16.506.319.197.159.45.345.786.398.112-.08.169-.053.169.054v.053l.309.345.057.16c.168.106.364.265.449.45zm-3.62-13.35-.029-.053a1 1 0 0 0-.252-.08c-.028 0-.084.026-.197.054-.196.106-.505.186-.73.292a.7.7 0 0 1-.252.08.8.8 0 0 0 .336-.08.6.6 0 0 1 .31-.08l.084.053c.056.027.084.027.14.027.028 0 .057 0 .112.053.057-.026.113-.026.197.027l.084-.054v-.106L8.3 3.09l.056.027c.057 0 .113-.027.17-.106zm4.238 15.552.027.16c0 .053-.027.053-.056.106-.085.053-.225.132-.225.292 0 .026.028.054.028.106.028.027.057.054.057.106 0 .027-.028.054-.028.08 1.937-.318 3.678-1.194 5.025-2.547h-.028c-.056.026-.14.026-.169 0l-.084.026-.14-.026h-.085a.6.6 0 0 0-.197-.186l-.027-.027c-.028 0-.057 0-.057.054 0-.239-.197-.451-.421-.451 0 .026-.028.026-.028.026h-.057l-.056-.026h.084l.057-.16-.14-.08-.028.027a.35.35 0 0 1-.253-.186l-.084-.027v.027l-.057.026a1.3 1.3 0 0 0-.252.08.55.55 0 0 1-.225-.106l-.337.026c0-.106-.056-.239-.196-.239-.17 0-.394 0-.45.186a.27.27 0 0 0 .057.16v.106l-.028.053-.027.027h-.028l-.085-.186.085-.106c-.028-.054-.028-.08-.028-.133 0-.052-.028-.08-.028-.132l-.028-.027h-.084l-.17.107h-.112l-.027.053c-.028 0-.028.026-.028.054 0 0-.028 0-.028.026l-.028-.026h-.112a.5.5 0 0 0-.112.212l.056.053-.14.054-.028.053-.084.054v.026h-.028v.133h-.028c-.028-.106-.112-.213-.281-.292h-.085v.053c0 .054.057.08.113.106.056.054.084.106.112.133-.028-.027-.085 0-.085.026v.053l.17.24v.45l.056.106c-.057.133-.112.266-.197.345v-.026l-.056.026-.028.026-.028.107.028.026v.026l-.057-.053-.028.16-.14.053c-.056.026-.084.053-.056.132 0 .054-.028.08-.085.107l.028.053-.057.08c0 .026 0 .053-.027.053v.107l.027.186.057.026.057-.026z" fill="currentColor"/></svg>
